svgs/sharp-light/truck-fast.svg

<svg xmlns="http://www.w3.org/2000/svg" viewBox="0 0 640 512"><!--! Font Awesome Pro 6.6.0 by @fontawesome - https://fontawesome.com License - https://fontawesome.com/license (Commercial License) Copyright 2024 Fonticons, Inc. --><path d="M96 32l288 0 0 352-133.5 0c-13.2-37.3-48.7-64-90.5-64c-24.6 0-47 9.2-64 24.4L96 288l-32 0 0 96 0 32c0 53 43 96 96 96s96-43 96-96l128 0c0 53 43 96 96 96s96-43 96-96l48 0 16 0 0-32-16 0-16 0 0-160 0-5.9-3.9-4.5-96-112L503.4 96 496 96l-80 0 0-64 0-32L384 0 96 0 64 0l0 32 0 64L16 96 0 96l0 32 16 0 224 0 16 0 0-32-16 0L96 96l0-64zM416 224l0-96 72.6 0 82.3 96L416 224zm0 32l160 0 0 128-5.5 0c-13.2-37.3-48.7-64-90.5-64c-24.6 0-47 9.2-64 24.4l0-88.4zM96 416a64 64 0 1 1 128 0A64 64 0 1 1 96 416zm384-64a64 64 0 1 1 0 128 64 64 0 1 1 0-128zM48 160l-16 0 0 32 16 0 224 0 16 0 0-32-16 0L48 160zM16 224L0 224l0 32 16 0 224 0 16 0 0-32-16 0L16 224z"/></svg>

<svg xmlns="http://www.w3.org/2000/svg" viewBox="0 0 640 512"><!--! Font Awesome Pro 6.4.2 by @fontawesome - https://fontawesome.com License - https://fontawesome.com/license (Commercial License) Copyright 2023 Fonticons, Inc. --><path d="M96 32H384V384H250.5c-13.2-37.3-48.7-64-90.5-64c-24.6 0-47 9.2-64 24.4V288H64v96 32c0 53 43 96 96 96s96-43 96-96H384c0 53 43 96 96 96s96-43 96-96h48 16V384H624 608V224v-5.9l-3.9-4.5-96-112L503.4 96H496 416V32 0H384 96 64V32 96H16 0v32H16 240h16V96H240 96V32zM416 224V128h72.6l82.3 96H416zm0 32H576V384h-5.5c-13.2-37.3-48.7-64-90.5-64c-24.6 0-47 9.2-64 24.4V256zM96 416a64 64 0 1 1 128 0A64 64 0 1 1 96 416zm384-64a64 64 0 1 1 0 128 64 64 0 1 1 0-128zM48 160H32v32H48 272h16V160H272 48zM16 224H0v32H16 240h16V224H240 16z"/></svg>
